X: 1614
T: Renkler Öpüyorken Korulardan
C: Ömer Dilek
O: Turkey
F: http://compmusic.upf.edu/node/140
N: muhayyerkurdi--sarki--aksak--renkler_opuyorken--omer_dilek
N: makam= muhayyerkurdi
N: form= sarki
N: usul= aksak = 9/8
M: 9/8
L: 1/16
K: C _B   
Q: 1/4=156
%%MIDI tuningsystem comma53
g4 a4 a2b2 a2g2 ^f2 | g4a2 b2ag ^fga4z2  | \
w:  Renk ler  ö pü yor  |  ken  ko ru lar *  *  *  dan    | 
a4 b4 a2g2 f2e2 d2 | 
w:  Hül ya  do lu  kum  | 
f3ef2 a2gf feeg feed  | e6ea g2f2 e2d2 c2 | 
w:  sal *  la rı  yer   |  yer   SAZ  | 
c3BB2 BAA4z6  | g4 a4 a2b2 a2g2 ^f2 | \
w:   |  Renk ler  ö pü yor  | 
g4a2 b2ag ^fga4z2  | 
w:  ken  ko ru lar *  *  *  dan    | 
a4 b4 a2g2 f2e2 d2 | f3ef2 a2gf feeg feed  | 
w:  Hül ya  do lu  kum  |  sal *  la rı  yer   | 
e6ea g2f2 e2d2 c2 | c3Bc2 d2e4z6  | f4 a4 g2a2 b6 | \
w:  yer   SAZ  |   |  Boğ muş tu  hi lâl   | 
a4d'2 c'bag fee6  | 
w:  iç li  su *  lar *  *  *  dan    | 
d4 e4 c2BA BAG4 | A2 B2A2 G2c2 BAdc cBBA  | 
w:  Yan mış tı  bir_ *  at  |  las  *  gi bi  gök  | 
A6ea g2f2 e2d2 c2 | c3Bc2 d2e4z6  | f4 a4 g2a2 b6 | \
w:  ler   SAZ  |   |  Boğ muş tu  hi lâl   | 
a4d'2 c'bag fee6  | 
w:  iç li  su *  lar *  *  *  dan    | 
d4 e4 c2BA BAG4 | A2 B2A2 G2c2 BAdc cBBA  | 
w:  Yan mış tı  bir_ *  at  |  las  *  gi bi  gök  | 
A6ea g2f2 e2d2 c2 | d2 d'2^c'2 b2c'b baa6  | \
w:  ler   SAZ  |   | 
^c'4 d'4 c'2d'2 _7/8e'4 d'2 | 
w:  Dur duk  ka ya lık  | 
^c'4c'2 d'2c'_7/8b baa6  | a4 d'4 ^c'2_7/8b2 a2gf ed | \
w:  lar dan_ i nin *  *  *  ce    |  Göğ süm de  ü mit  | 
e3de2 g2fe dcdg feed  | 
w:  ler  *  yi ne  şen  | 
e6ea g2f2 e2d2 c2 | d2 d'2^c'2 _7/8b2c'b baa6  | \
w:  di   SAZ  |   | 
^c'4 d'4 c'2d'2 _7/8e'4 d'2 | 
w:  Dur duk  ka ya lık  | 
^c'4c'2 d'2c'_7/8b baa6  | a4 d'4 ^c'2_7/8b2 a2gf ed | \
w:  lar dan_ i nin *  *  *  ce    |  Göğ süm de  ü mit  | 
e3de2 g2fe dcdg feed  | 
w:  ler  *  yi ne  şen  | 
e6ea g2f2 e2d2 c2 | c3Bc2 d2e4z6  | f4 a4 g2a2 b6 | \
w:  di   SAZ  |   |  Boğ muş tu  hi lâl   | 
a4d'2 c'bag fee6  | 
w:  iç li  su *  lar *  *  *  dan    | 
d4 e4 c2BA BAG4 | A2 B2A2 G2c2 BAdc cBBA  | 
w:  Yan mış tı  bir_ *  at  |  las  *  gi bi  gök  | 
A6|
w:  ler    | 


